X: 2210
T: BRAES OF TULLYMET
Q: "Strathspey."
R: Strathspey.
%R: strathspey
B: James Kerr "Merry Melodies" v.2 p.23 #210
Z: 2016 John Chambers <jc:trillian.mit.edu>
M: C
L: 1/16
K: Gm
uA2 |\
(Ad3)ud3uc vd3vc(df3) | (AF3)c3F d3F(c3d) |\
(Ad3)d3c d3c(dg3) | vf3c dcBA AG3G2 ::\
u^f2 |\
vg3udgb3 vg3udgb3 |
f3cfa3 f3cfa3 |\
[1 g3dgb3 g3dgb3 | f3c dcBA AG3G2 :|\
[2 gd3 d3ue f3ga3g | f3c dcBA AG3G2 |]

%%sep 1 1 500
%%sep 1 1 500

